images/header-bg-1.svg

<svg width="133" height="133" viewBox="0 0 133 133" fill="none" xmlns="http://www.w3.org/2000/svg">
<g opacity="0.6">
<path d="M82.1201 66.1425C85.6384 67.1808 89.3322 65.1704 90.3705 61.6522C91.4088 58.1339 89.3984 54.4401 85.8801 53.4018C82.3619 52.3636 78.6681 54.374 77.6298 57.8922C76.5915 61.4104 78.6019 65.1042 82.1201 66.1425Z" fill="#131313"/>
<path d="M52.3916 57.3691C55.9099 58.4074 59.6037 56.397 60.642 52.8787C61.6802 49.3605 59.6698 45.6667 56.1516 44.6284C52.6334 43.5901 48.9396 45.6005 47.9013 49.1188C46.863 52.637 48.8734 56.3308 52.3916 57.3691Z" fill="#131313"/>
<path d="M82.1201 66.1425C85.6384 67.1808 89.3322 65.1704 90.3705 61.6522C91.4088 58.1339 89.3984 54.4401 85.8801 53.4018C82.3619 52.3636 78.6681 54.374 77.6298 57.8922C76.5915 61.4104 78.6019 65.1042 82.1201 66.1425Z" fill="#131313"/>
<path d="M52.3916 57.3691C55.9099 58.4074 59.6037 56.397 60.642 52.8787C61.6802 49.3605 59.6698 45.6667 56.1516 44.6284C52.6334 43.5901 48.9396 45.6005 47.9013 49.1188C46.863 52.637 48.8734 56.3308 52.3916 57.3691Z" fill="#131313"/>
<path d="M78.4934 23.5212C55.0505 16.6029 30.452 30.0266 23.5336 53.4695C16.6153 76.9124 29.984 101.541 53.4269 108.459C76.9122 115.39 101.553 101.979 108.472 78.536C115.39 55.0931 101.979 30.4521 78.4934 23.5212ZM55.976 99.9779C37.2047 94.4382 26.4877 74.7474 32.0274 55.9761C37.5671 37.2048 57.2579 26.4878 76.0292 32.0275C94.8005 37.5672 105.518 57.2581 99.9778 76.0293C94.4381 94.8006 74.7473 105.518 55.976 99.9779ZM59.1093 89.3607C69.0046 92.2809 79.2733 88.617 85.2401 80.9136L78.1478 78.8205C73.7259 83.0095 67.2747 84.8452 60.9893 82.9903C54.7039 81.1354 50.3255 76.1037 48.8442 70.1726L41.7518 68.0795C42.58 77.7883 49.2141 86.4404 59.1093 89.3607Z" fill="#131313"/>
</g>
</svg>

<svg width="133" height="133" fill="none" xmlns="http://www.w3.org/2000/svg"><g opacity=".6" fill="#131313"><path d="M82.12 66.142a6.642 6.642 0 103.76-12.74 6.642 6.642 0 00-3.76 12.74zM52.392 57.37a6.642 6.642 0 103.76-12.742 6.642 6.642 0 00-3.76 12.741z"/><path d="M82.12 66.142a6.642 6.642 0 103.76-12.74 6.642 6.642 0 00-3.76 12.74zM52.392 57.37a6.642 6.642 0 103.76-12.742 6.642 6.642 0 00-3.76 12.741z"/><path d="M78.493 23.521c-23.442-6.918-48.041 6.506-54.96 29.948-6.918 23.443 6.451 48.072 29.894 54.99 23.485 6.931 48.126-6.48 55.045-29.923 6.918-23.443-6.493-48.084-29.979-55.015zM55.976 99.978c-18.771-5.54-29.488-25.23-23.949-44.002 5.54-18.771 25.23-29.488 44.002-23.948 18.772 5.54 29.489 25.23 23.949 44.001-5.54 18.772-25.23 29.489-44.002 23.949zm3.133-10.617c9.896 2.92 20.164-.744 26.131-8.447l-7.092-2.094c-4.422 4.19-10.873 6.025-17.159 4.17-6.285-1.855-10.663-6.886-12.145-12.817l-7.092-2.094c.828 9.71 7.462 18.361 17.357 21.282z"/></g></svg>
